X: 1785
T: Sobalarında Kuru da Meşe
C: Özay Gönlüm
O: Turkey
F: http://compmusic.upf.edu/node/140
N: nikriz--zeybek--agiraksak--sobalarinda_guru--denizli
N: makam= nikriz
N: form= zeybek
N: usul= agiraksak = 9/4
M: 9/4
L: 1/16
K: C _7/8B ^3/4f ^c 
Q: 1/4=72
%%MIDI tuningsystem comma53
d2g4.g2 =fefg e4 e2{g}f{g}e f2g2 e2{g}f{g}e d4 e2eg  | \
w:  SAZ  | 
=f2e2 dcde c4 e2{g}f{g}e d2{e}d{e}c B4 z2.d.c B4 z4  | 
w:   | 
d2{=f}.e.d .e2.e2 dcde c4 d2{e}dc d2e2 c2{e}dc B4 c2de  | 
w:   | 
d2c2 B3A B2A2 c3/2e/dc B2{c}BA G4 z2.B.A G4 z4  | \
w:   | 
D2GG G2G2 GFG2 dcd2 c2cc c3B B2A2 G4 z2G2  | 
w:   | 
G2G2 G4 B2A2 G2F2 G4 GFED G4 z8  | \
w:   | 
d2g4.g2 =fefg e4 e2{g}f{g}e f2g2 e2{g}f{g}e d4 e2eg  | 
w:  SAZ  | 
=f2e2 dcde c4 e2{g}f{g}e d2{e}d{e}c B4 z2.d.c B4 z4  | \
w:   | 
d2{=f}.e.d .e2.e2 dcde c4 d2{e}dc d2e2 c2{e}dc B4 c2de  | 
w:   | 
d2c2 B3A B2A2 c3/2e/dc B2{c}BA G4 z2.B.A G4 z4  | \
w:   | 
D2GG G2G2 GFG2 dcd2 c2cc c3B B2A2 G4 z2G2  | 
w:   | 
G2G2 G4 B2A2 G2F2 G4 GFED G4 z8  | \
w:   | 
D2D2 G2G2 GFG2 d4 c2d2 {e}d2d2 d3c BAB2 z2cd  | 
w:  So ba *  la rın *  *  da  gu ru  *  *  da  me *  şe  *  *  ya  | 
c2d2 eg=f2 e3d d12 z2BA G4 z4  | D2D2 G2G2 G4 d4 c2de d2d2 d3c BAB2 z2cd  | 
w:  nı *  yor  *  *  e *  fem   SAZ  |  So ba *  la rın da  gu ru  *  da  *  me *  şe  *  *  ya  | 
c2d2 eg=f2 e3d d12 z2.f.e d4 z4  | \
w:  nı *  yor  *  *  e *  fem   SAZ  | 
d4 {=f}g2g2 fef2 e2d2 e2f2 {g}f2f2 e2fe d4 e2f2  | 
w:  *  *  Ya nı yor  *  *  ya  *  Me *  *  med_ E fem  *  *  de  ü şü  | 
{g}=f2e2 d4 c4 f2{g}fe d3c B4 z2dc B4 z4  | \
w:  *  *  *  müş  de  do *  nu *  *  *  yor   SAZ  | 
e2e2 ee3 d2d2 {e}c4 z2d4d2 c2dc BAB2 c2d2  | 
w:  Bon cuk lu  da  ge lin  *  *  or ta lık ta  *  *  *  *  dö nü  | 
{e}d2c2 B3A B2A2 d2{e}d{e}c B3A G4 z2BA G4 z4  | \
w:  *  *  *  yor  *  da  *  dö *  nü *  *  *  *  yor   SAZ  | 
D2G4G2 G4 dcd2 z2c4B2 d3c B2A2 G4  | 
w:  As *  la nım  da  *  *  e fe ler  *  vay  *  vay    | 
G2G2 G2G2 G4 B3A G2F2 G4 GFED G4 z4  | \
w:  *  SAZ  | 
D2D2 G2G2 GFG2 d4 c2d2 {e}d2d2 d3c BAB2 z2cd  | 
w:  So ba *  la rın *  *  da  gu ru  *  *  da  me *  şe  *  *  ya  | 
c2d2 eg=f2 e3d d12 z2BA G4 z4  | D2D2 G2G2 G4 d4 c2de d2d2 d3c BAB2 z2cd  | 
w:  nı *  yor  *  *  e *  fem   SAZ  |  So ba *  la rın da  gu ru  *  da  *  me *  şe  *  *  ya  | 
c2d2 eg=f2 e3d d12 z2.f.e d4 z4  | \
w:  nı *  yor  *  *  e *  fem   SAZ  | 
d4 {=f}g2g2 fef2 e2d2 e2f2 {g}f2f2 e2fe d4 e2f2  | 
w:  *  *  Ya nı yor  *  *  ya  *  Me *  *  med_ E fem  *  *  de  ü şü  | 
{g}=f2e2 d4 c4 f2{g}fe d3c B4 z2dc B4 z4  | \
w:  *  *  *  müş  de  do *  nu *  *  *  yor   SAZ  | 
e2e2 ee3 d2d2 {e}c4 z2d4d2 c2dc BAB2 c2d2  | 
w:  Bon cuk lu  da  ge lin  *  *  or ta lık ta  *  *  *  *  dö nü  | 
{e}d2c2 B3A B2A2 d2{e}d{e}c B3A G4 z2BA G4 z4  | \
w:  *  *  *  yor  *  da  *  dö *  nü *  *  *  *  yor   SAZ  | 
D2G4G2 G4 dcd2 z2c4B2 d3c B2A2 G4  | 
w:  As *  la nım  da  *  *  e fe ler  *  vay  *  vay    | 
G2G2 G2G2 G4 B3A G2F2 G4 GFED G4 z4  | |


